flaticon/essential/alarm-clock-1.svg

<svg xmlns="http://www.w3.org/2000/svg" width="32" height="32" viewBox="0 0 24 24">
    <path d="M 16.539062 12.03125 L 13.59375 12.03125 C 13.441406 11.453125 12.988281 11.003906 12.414062 10.851562 L 12.414062 6.667969 C 12.414062 6.4375 12.226562 6.253906 12 6.253906 C 11.773438 6.253906 11.585938 6.4375 11.585938 6.667969 L 11.585938 10.851562 C 10.878906 11.035156 10.347656 11.675781 10.347656 12.445312 C 10.347656 13.355469 11.089844 14.09375 12 14.09375 C 12.765625 14.09375 13.40625 13.566406 13.59375 12.855469 L 16.539062 12.855469 C 16.765625 12.855469 16.953125 12.671875 16.953125 12.445312 C 16.953125 12.214844 16.769531 12.03125 16.539062 12.03125 Z M 12 13.269531 C 11.542969 13.269531 11.175781 12.898438 11.175781 12.445312 C 11.175781 11.988281 11.542969 11.617188 12 11.617188 C 12.453125 11.617188 12.824219 11.988281 12.824219 12.445312 C 12.824219 12.898438 12.453125 13.269531 12 13.269531 Z M 12 13.269531"/>
    <path d="M 20.710938 4.03125 L 22.402344 5.71875 C 22.480469 5.796875 22.585938 5.839844 22.695312 5.839844 C 22.804688 5.839844 22.910156 5.796875 22.988281 5.71875 C 24.292969 4.414062 24.292969 2.285156 22.988281 0.980469 C 21.679688 -0.328125 19.554688 -0.328125 18.246094 0.980469 C 18.167969 1.058594 18.125 1.164062 18.125 1.273438 C 18.125 1.382812 18.167969 1.488281 18.246094 1.5625 L 20.128906 3.445312 L 19.429688 4.148438 C 17.457031 2.378906 14.851562 1.300781 12 1.300781 C 9.148438 1.300781 6.546875 2.378906 4.574219 4.148438 L 3.871094 3.445312 L 5.753906 1.5625 C 5.832031 1.484375 5.875 1.382812 5.875 1.273438 C 5.875 1.164062 5.832031 1.058594 5.753906 0.980469 C 4.445312 -0.328125 2.320312 -0.328125 1.011719 0.980469 C -0.292969 2.285156 -0.292969 4.414062 1.011719 5.71875 C 1.089844 5.796875 1.195312 5.839844 1.304688 5.839844 C 1.414062 5.839844 1.519531 5.796875 1.597656 5.71875 L 3.289062 4.03125 L 3.980469 4.722656 C 2.046875 6.726562 0.855469 9.449219 0.855469 12.445312 C 0.855469 16.527344 3.066406 20.105469 6.355469 22.046875 L 5.105469 23.296875 C 4.945312 23.457031 4.945312 23.71875 5.105469 23.878906 C 5.183594 23.960938 5.289062 24 5.398438 24 C 5.503906 24 5.609375 23.960938 5.6875 23.878906 L 7.113281 22.457031 C 8.589844 23.179688 10.246094 23.585938 12 23.585938 C 13.753906 23.585938 15.410156 23.179688 16.886719 22.457031 L 18.3125 23.878906 C 18.390625 23.960938 18.496094 24 18.601562 24 C 18.707031 24 18.8125 23.960938 18.894531 23.878906 C 19.054688 23.71875 19.054688 23.457031 18.894531 23.296875 L 17.644531 22.046875 C 20.933594 20.105469 23.144531 16.527344 23.144531 12.445312 C 23.144531 9.449219 21.953125 6.726562 20.019531 4.722656 Z M 22.402344 1.5625 C 23.289062 2.449219 23.378906 3.835938 22.671875 4.820312 L 19.144531 1.296875 C 20.132812 0.589844 21.515625 0.675781 22.402344 1.5625 Z M 1.328125 4.820312 C 0.621094 3.835938 0.710938 2.449219 1.597656 1.5625 C 2.480469 0.679688 3.867188 0.589844 4.855469 1.296875 Z M 12 22.761719 C 6.3125 22.761719 1.683594 18.132812 1.683594 12.445312 C 1.683594 6.753906 6.3125 2.125 12 2.125 C 17.6875 2.125 22.316406 6.753906 22.316406 12.445312 C 22.316406 18.132812 17.6875 22.761719 12 22.761719 Z M 12 22.761719"/>
    <path d="M 20.207031 7.679688 C 19.375 6.257812 18.1875 5.070312 16.765625 4.238281 C 16.757812 4.234375 16.753906 4.226562 16.746094 4.222656 C 16.738281 4.21875 16.730469 4.21875 16.722656 4.214844 C 15.332031 3.414062 13.71875 2.953125 12 2.953125 C 10.28125 2.953125 8.667969 3.414062 7.277344 4.214844 C 7.269531 4.21875 7.261719 4.21875 7.253906 4.222656 C 7.246094 4.226562 7.242188 4.234375 7.238281 4.238281 C 5.8125 5.070312 4.625 6.257812 3.796875 7.679688 C 3.789062 7.6875 3.785156 7.691406 3.78125 7.699219 C 3.777344 7.707031 3.777344 7.714844 3.773438 7.722656 C 2.96875 9.113281 2.507812 10.726562 2.507812 12.445312 C 2.507812 14.164062 2.96875 15.777344 3.773438 17.167969 C 3.777344 17.175781 3.777344 17.183594 3.78125 17.191406 C 3.785156 17.199219 3.792969 17.207031 3.800781 17.21875 C 4.628906 18.636719 5.816406 19.820312 7.238281 20.648438 C 7.242188 20.652344 7.246094 20.660156 7.253906 20.664062 C 7.265625 20.671875 7.277344 20.671875 7.289062 20.679688 C 8.675781 21.476562 10.285156 21.9375 12 21.9375 C 13.714844 21.9375 15.324219 21.476562 16.714844 20.679688 C 16.722656 20.671875 16.734375 20.671875 16.746094 20.664062 C 16.753906 20.660156 16.757812 20.652344 16.765625 20.648438 C 18.183594 19.820312 19.371094 18.636719 20.199219 17.21875 C 20.207031 17.207031 20.214844 17.199219 20.222656 17.191406 C 20.226562 17.183594 20.226562 17.175781 20.226562 17.167969 C 21.03125 15.773438 21.492188 14.164062 21.492188 12.445312 C 21.492188 10.726562 21.03125 9.113281 20.226562 7.722656 C 20.222656 7.714844 20.226562 7.707031 20.222656 7.699219 C 20.214844 7.691406 20.210938 7.6875 20.207031 7.679688 Z M 16.679688 19.726562 L 16.484375 19.386719 C 16.371094 19.1875 16.117188 19.121094 15.921875 19.234375 C 15.722656 19.347656 15.65625 19.601562 15.769531 19.796875 L 15.96875 20.140625 C 14.894531 20.695312 13.6875 21.03125 12.414062 21.089844 L 12.414062 20.699219 C 12.414062 20.46875 12.226562 20.285156 12 20.285156 C 11.773438 20.285156 11.585938 20.46875 11.585938 20.699219 L 11.585938 21.089844 C 10.3125 21.03125 9.109375 20.695312 8.035156 20.140625 L 8.230469 19.796875 C 8.34375 19.601562 8.277344 19.347656 8.078125 19.234375 C 7.882812 19.121094 7.628906 19.1875 7.515625 19.386719 L 7.320312 19.726562 C 6.277344 19.054688 5.390625 18.167969 4.71875 17.125 L 5.058594 16.929688 C 5.257812 16.816406 5.324219 16.5625 5.210938 16.363281 C 5.09375 16.167969 4.84375 16.097656 4.644531 16.214844 L 4.304688 16.410156 C 3.75 15.335938 3.414062 14.132812 3.355469 12.855469 L 3.746094 12.855469 C 3.972656 12.855469 4.160156 12.671875 4.160156 12.445312 C 4.160156 12.214844 3.972656 12.03125 3.746094 12.03125 L 3.355469 12.03125 C 3.414062 10.757812 3.746094 9.550781 4.304688 8.476562 L 4.644531 8.675781 C 4.710938 8.714844 4.78125 8.730469 4.851562 8.730469 C 4.992188 8.730469 5.132812 8.65625 5.210938 8.523438 C 5.324219 8.328125 5.253906 8.074219 5.058594 7.960938 L 4.71875 7.761719 C 5.390625 6.722656 6.277344 5.832031 7.320312 5.160156 L 7.515625 5.503906 C 7.59375 5.632812 7.730469 5.707031 7.875 5.707031 C 7.941406 5.707031 8.015625 5.691406 8.078125 5.652344 C 8.277344 5.539062 8.34375 5.289062 8.230469 5.089844 L 8.03125 4.746094 C 9.105469 4.191406 10.3125 3.859375 11.585938 3.796875 L 11.585938 4.191406 C 11.585938 4.417969 11.773438 4.601562 12 4.601562 C 12.226562 4.601562 12.410156 4.417969 12.410156 4.191406 L 12.410156 3.796875 C 13.6875 3.859375 14.890625 4.191406 15.964844 4.746094 L 15.769531 5.089844 C 15.65625 5.289062 15.722656 5.539062 15.917969 5.652344 C 15.984375 5.691406 16.054688 5.707031 16.125 5.707031 C 16.269531 5.707031 16.40625 5.632812 16.484375 5.503906 L 16.679688 5.160156 C 17.722656 5.832031 18.609375 6.722656 19.28125 7.761719 L 18.941406 7.960938 C 18.742188 8.074219 18.675781 8.328125 18.789062 8.523438 C 18.867188 8.65625 19.003906 8.730469 19.148438 8.730469 C 19.21875 8.730469 19.289062 8.710938 19.351562 8.675781 L 19.695312 8.476562 C 20.25 9.550781 20.585938 10.753906 20.644531 12.03125 L 20.253906 12.03125 C 20.023438 12.03125 19.839844 12.214844 19.839844 12.445312 C 19.839844 12.671875 20.023438 12.855469 20.253906 12.855469 L 20.644531 12.855469 C 20.585938 14.132812 20.25 15.335938 19.695312 16.410156 L 19.351562 16.214844 C 19.15625 16.097656 18.902344 16.167969 18.789062 16.363281 C 18.675781 16.5625 18.742188 16.8125 18.941406 16.929688 L 19.28125 17.125 C 18.609375 18.167969 17.722656 19.054688 16.679688 19.726562 Z M 16.679688 19.726562"/>
</svg>

<svg xmlns="http://www.w3.org/2000/svg" width="32" height="32" viewBox="0 0 24 24">
    <path d="M16.54 12.031h-2.946a1.66 1.66 0 0 0-1.18-1.18V6.669a.414.414 0 0 0-.828 0v4.184a1.651 1.651 0 0 0-1.238 1.593c0 .91.742 1.649 1.652 1.649.766 0 1.406-.528 1.594-1.239h2.945a.412.412 0 1 0 0-.824zM12 13.27a.825.825 0 1 1 0-1.652c.453 0 .824.37.824.827a.827.827 0 0 1-.824.825zm0 0"/>
    <path d="M20.71 4.031l1.692 1.688a.414.414 0 0 0 .586 0 3.357 3.357 0 0 0 0-4.739 3.355 3.355 0 0 0-4.742 0 .414.414 0 0 0-.121.293c0 .11.043.215.121.29l1.883 1.882-.7.703A11.095 11.095 0 0 0 12 1.301a11.085 11.085 0 0 0-7.426 2.847l-.703-.703 1.883-1.882a.405.405 0 0 0 .121-.29.414.414 0 0 0-.121-.293 3.355 3.355 0 0 0-4.742 0 3.357 3.357 0 0 0 0 4.739.414.414 0 0 0 .586 0L3.289 4.03l.691.692a11.09 11.09 0 0 0-3.125 7.722c0 4.082 2.211 7.66 5.5 9.602l-1.25 1.25a.413.413 0 0 0 .582.582l1.426-1.422A11.08 11.08 0 0 0 12 23.586c1.754 0 3.41-.406 4.887-1.129l1.425 1.422a.41.41 0 0 0 .582-.582l-1.25-1.25c3.29-1.942 5.5-5.52 5.5-9.602a11.09 11.09 0 0 0-3.124-7.722zm1.692-2.468a2.53 2.53 0 0 1 .27 3.257l-3.527-3.523a2.53 2.53 0 0 1 3.257.266zM1.328 4.82a2.53 2.53 0 0 1 .27-3.258 2.534 2.534 0 0 1 3.257-.265zM12 22.762c-5.688 0-10.316-4.63-10.316-10.317 0-5.691 4.628-10.32 10.316-10.32 5.688 0 10.316 4.629 10.316 10.32 0 5.688-4.628 10.317-10.316 10.317zm0 0"/>
    <path d="M20.207 7.68a9.622 9.622 0 0 0-3.441-3.442c-.008-.004-.012-.011-.02-.015s-.016-.004-.023-.008A9.438 9.438 0 0 0 12 2.953c-1.719 0-3.332.461-4.723 1.262-.007.004-.015.004-.023.008s-.012.011-.016.015A9.56 9.56 0 0 0 3.797 7.68a.069.069 0 0 0-.016.02c-.004.007-.004.015-.008.023a9.401 9.401 0 0 0-1.265 4.722c0 1.72.46 3.332 1.265 4.723.004.008.004.016.008.023.004.008.012.016.02.028a9.548 9.548 0 0 0 3.437 3.43c.004.003.008.011.016.015.012.008.023.008.035.016a9.457 9.457 0 0 0 9.426 0c.008-.008.02-.008.031-.016.008-.004.012-.012.02-.016a9.568 9.568 0 0 0 3.433-3.43c.008-.011.016-.019.024-.027.004-.007.004-.015.004-.023a9.412 9.412 0 0 0 1.265-4.723c0-1.718-.46-3.332-1.265-4.722-.004-.008 0-.016-.004-.024-.008-.008-.012-.011-.016-.02zM16.68 19.727l-.196-.34a.411.411 0 0 0-.562-.153.411.411 0 0 0-.152.563l.199.344a8.6 8.6 0 0 1-3.555.949v-.39a.414.414 0 0 0-.828 0v.39a8.583 8.583 0 0 1-3.55-.95l.194-.343a.411.411 0 0 0-.152-.563.411.411 0 0 0-.562.153l-.196.34a8.696 8.696 0 0 1-2.601-2.602l.34-.195a.415.415 0 0 0 .152-.567.414.414 0 0 0-.566-.148l-.34.195a8.585 8.585 0 0 1-.95-3.555h.391a.413.413 0 0 0 .414-.41.414.414 0 0 0-.414-.414h-.39c.058-1.273.39-2.48.949-3.554l.34.199a.42.42 0 0 0 .566-.152.414.414 0 0 0-.152-.563l-.34-.2a8.741 8.741 0 0 1 2.601-2.6l.196.343a.42.42 0 0 0 .562.148.41.41 0 0 0 .152-.562l-.199-.344a8.66 8.66 0 0 1 3.555-.95v.395c0 .227.187.41.414.41a.41.41 0 0 0 .41-.41v-.394a8.644 8.644 0 0 1 3.555.95l-.195.343a.412.412 0 1 0 .714.414l.196-.344a8.741 8.741 0 0 1 2.601 2.602l-.34.199a.411.411 0 0 0 .207.77c.07 0 .141-.02.204-.055l.343-.2a8.585 8.585 0 0 1 .95 3.555h-.391a.412.412 0 1 0 0 .824h.39a8.585 8.585 0 0 1-.949 3.555l-.343-.195a.41.41 0 0 0-.563.148c-.113.2-.047.45.152.567l.34.195a8.696 8.696 0 0 1-2.601 2.602zm0 0"/>
</svg>
